X:85
T:Lark on the Strand
Z: id:dc-jig-167
M:6/8
L:1/8
K:G Major
ABA AGA|BGE G3|ABA GBd|egd edB|!
ABA AGA|BGE G2D|GBA G2B|dBG BdB:|!
GBd g3|gba gdB|GBd g3|egd edB|!
GBd g3|gba g3|aba age|egd edB:|!